src/assets/svg/hot_products.svg

<svg width="116" height="32" viewBox="0 0 116 32" fill="none" xmlns="http://www.w3.org/2000/svg">
<g filter="url(#filter0_d_4449_12144)">
<path d="M34.7833 13.952L35.7673 14.36L36.4153 12.584H34.9753L35.3113 10.304H37.2552L37.4953 9.68L36.8713 8.936H41.4313L40.9273 10.304H45.3433L44.2393 18.056H44.6953L45.7513 17.144L45.2233 20.792H40.2073L41.3593 12.584H40.0633L38.9353 15.632L40.3993 16.232L40.0153 18.968L37.9993 18.152L37.0153 20.792H33.3673L34.8313 16.856L34.3993 16.688L34.7833 13.952ZM26.0713 20.792L28.2073 18.536L28.3513 17.456L26.0473 17.84L26.3833 15.32L28.7113 14.912L29.0233 12.8H26.7433L27.0553 10.52H29.3353L29.5753 8.936H33.2233L33.0073 10.52H34.8073L34.4953 12.8H32.6713L32.4793 14.264L34.3273 13.952L33.9913 16.472L32.1193 16.808L31.7833 19.16C31.7033 19.624 31.4793 20.016 31.1113 20.336C30.7593 20.64 30.3593 20.792 29.9113 20.792H26.0713ZM30.7753 26.216L30.5353 21.704H34.6393L34.8793 26.216H30.7753ZM35.7673 26.216L35.5273 21.704H39.6313L39.8713 26.216H35.7673ZM24.3913 26.216L25.9513 21.704H30.0553L28.4953 26.216H24.3913ZM40.7833 26.216L40.5433 21.704H44.6473L44.8873 26.216H40.7833ZM67.4214 9.848L65.3334 24.632C65.2694 25.096 65.0614 25.48 64.7094 25.784C64.3574 26.072 63.9494 26.216 63.4854 26.216H59.1894L61.3254 23.984L62.9814 12.128H53.6454L53.9814 9.848H67.4214ZM52.8294 13.04L50.9814 26.216H46.8774L48.7254 13.04H52.8294ZM53.1174 9.392V12.584H49.0374L49.0134 9.392H53.1174ZM87.0275 12.584L85.9715 14.168H88.6355L87.2195 24.176C87.1555 24.64 86.9475 25.032 86.5955 25.352C86.2435 25.656 85.8355 25.808 85.3715 25.808H81.7715L83.8835 23.672L84.5795 18.728H80.6915L79.6115 16.688H83.7155L84.6275 18.416L84.9395 16.232H73.5155L73.2035 18.392L74.5955 16.688H78.6995L77.0435 18.728H73.1555L72.1715 25.808H68.7635L70.3955 14.168H73.1075L72.4355 12.584H76.9955L77.6675 14.168H81.4115L82.4675 12.584H87.0275ZM73.3235 23.984L73.9955 19.184H83.5715L82.8995 23.984H73.3235ZM77.7875 10.088L77.8595 9.656L77.0435 8.936H82.5155L82.3475 10.088H89.6675L89.3795 12.128H70.2275L70.5155 10.088H77.7875ZM80.2115 22.16L80.3795 21.008H76.7315L76.5635 22.16H80.2115ZM95.6176 10.304L94.8256 9.392H110.33L109.298 16.688H94.7056L95.6176 10.304ZM105.074 14.408L105.458 11.672H99.9856L99.6016 14.408H105.074ZM111.458 17.6L110.306 25.808H101.186L102.338 17.6H111.458ZM105.674 19.88L105.146 23.528H106.97L107.498 19.88H105.674ZM101.426 17.6L100.274 25.808H91.1536L92.3056 17.6H101.426ZM95.6416 19.88L95.1136 23.528H96.9376L97.4656 19.88H95.6416Z" fill="white"/>
</g>
<path fill-rule="evenodd" clip-rule="evenodd" d="M32 16C32 24.8366 24.8366 32 16 32C7.16344 32 0 24.8366 0 16C0 7.16344 7.16344 0 16 0C24.8366 0 32 16 32 16Z" fill="url(#paint0_linear_4449_12144)"/>
<defs>
<filter id="filter0_d_4449_12144" x="24.3911" y="8.93604" width="91.0664" height="21.2798" filterUnits="userSpaceOnUse" color-interpolation-filters="sRGB">
<feFlood flood-opacity="0" result="BackgroundImageFix"/>
<feColorMatrix in="SourceAlpha" type="matrix" values="0 0 0 0 0 0 0 0 0 0 0 0 0 0 0 0 0 0 127 0" result="hardAlpha"/>
<feOffset dx="4" dy="4"/>
<feColorMatrix type="matrix" values="0 0 0 0 0.654902 0 0 0 0 0.960784 0 0 0 0 0.133333 0 0 0 0.2 0"/>
<feBlend mode="normal" in2="BackgroundImageFix" result="effect1_dropShadow_4449_12144"/>
<feBlend mode="normal" in="SourceGraphic" in2="effect1_dropShadow_4449_12144" result="shape"/>
</filter>
<linearGradient id="paint0_linear_4449_12144" x1="-17.079" y1="28.5395" x2="8" y2="44.5395" gradientUnits="userSpaceOnUse">
<stop stop-color="#A7F522"/>
<stop offset="1" stop-color="#DCF8A6" stop-opacity="0.01"/>
</linearGradient>
</defs>
</svg>

<svg width="116" height="32" fill="none" xmlns="http://www.w3.org/2000/svg"><g filter="url(#prefix__a)"><path d="m34.783 13.952.984.408.648-1.776h-1.44l.336-2.28h1.944l.24-.624-.624-.744h4.56l-.504 1.368h4.416l-1.104 7.752h.456l1.056-.912-.528 3.648h-5.016l1.152-8.208h-1.296l-1.128 3.048 1.464.6-.384 2.736L38 18.152l-.984 2.64h-3.648l1.464-3.936-.432-.168zm-8.712 6.84 2.136-2.256.144-1.08-2.304.384.336-2.52 2.328-.408.312-2.112h-2.28l.312-2.28h2.28l.24-1.584h3.648l-.216 1.584h1.8l-.312 2.28h-1.824l-.192 1.464 1.848-.312-.336 2.52-1.872.336-.336 2.352q-.12.696-.672 1.176a1.8 1.8 0 0 1-1.2.456zm4.704 5.424-.24-4.512h4.104l.24 4.512zm4.992 0-.24-4.512h4.104l.24 4.512zm-11.376 0 1.56-4.512h4.104l-1.56 4.512zm16.392 0-.24-4.512h4.104l.24 4.512zM67.421 9.848l-2.088 14.784a1.8 1.8 0 0 1-.624 1.152q-.528.432-1.224.432H59.19l2.136-2.232 1.656-11.856h-9.336l.336-2.28zM52.83 13.04l-1.848 13.176h-4.104l1.848-13.176zm.288-3.648v3.192h-4.08l-.024-3.192zm33.91 3.192-1.055 1.584h2.663L87.22 24.176a1.9 1.9 0 0 1-.623 1.176q-.529.456-1.225.456h-3.6l2.112-2.136.697-4.944h-3.888l-1.08-2.04h4.104l.912 1.728.311-2.184H73.517l-.312 2.16 1.392-1.704H78.7l-1.656 2.04h-3.888l-.984 7.08h-3.408l1.632-11.64h2.713l-.672-1.584h4.56l.672 1.584h3.743l1.056-1.584zm-13.704 11.4.673-4.8h9.576l-.672 4.8zm4.465-13.896.072-.432-.817-.72h5.472l-.168 1.152h7.32l-.288 2.04H70.229l.288-2.04zm2.424 12.072.167-1.152h-3.648l-.167 1.152zm15.406-11.856-.792-.912h15.504l-1.032 7.296H94.706zm9.456 4.104.384-2.736h-5.472l-.384 2.736zm6.384 3.192-1.152 8.208h-9.12l1.152-8.208zm-5.784 2.28-.528 3.648h1.824l.528-3.648zm-4.248-2.28-1.152 8.208h-9.12l1.152-8.208zm-5.784 2.28-.528 3.648h1.824l.528-3.648z" fill="#fff"/></g><path fill-rule="evenodd" clip-rule="evenodd" d="M32 16c0 8.837-7.163 16-16 16S0 24.837 0 16 7.163 0 16 0s16 16 16 16" fill="url(#prefix__b)"/><defs><linearGradient id="prefix__b" x1="-17.079" y1="28.54" x2="8" y2="44.539" gradientUnits="userSpaceOnUse"><stop stop-color="#A7F522"/><stop offset="1" stop-color="#DCF8A6" stop-opacity=".01"/></linearGradient><filter id="prefix__a" x="24.391" y="8.936" width="91.066" height="21.28" filterUnits="userSpaceOnUse" color-interpolation-filters="sRGB"><feFlood flood-opacity="0" result="BackgroundImageFix"/><feColorMatrix in="SourceAlpha" values="0 0 0 0 0 0 0 0 0 0 0 0 0 0 0 0 0 0 127 0" result="hardAlpha"/><feOffset dx="4" dy="4"/><feColorMatrix values="0 0 0 0 0.654902 0 0 0 0 0.960784 0 0 0 0 0.133333 0 0 0 0.2 0"/><feBlend in2="BackgroundImageFix" result="effect1_dropShadow_4449_12144"/><feBlend in="SourceGraphic" in2="effect1_dropShadow_4449_12144" result="shape"/></filter></defs></svg>
